examples/pbrNeutral.cube
TITLE "PBR Neutral sRGB"
# PBR Neutral sRGB LUT
DOMAIN_MIN 0 0 0
DOMAIN_MAX 1 1 1
LUT_3D_SIZE 5
0.0000238 0.0000238 0.0000238
0.0506267 0.0000238 0.0000238
0.9354466 0.0624569 0.0624569
0.9984653 0.8462171 0.8462171
0.9999437 0.9934695 0.9934695
0.0000238 0.0506267 0.0000238
0.0506267 0.0506267 0.0000238
0.9354466 0.0937372 0.0624569
0.9984653 0.8464195 0.8462171
0.9999437 0.9934698 0.9934695
0.0624569 0.9354466 0.0624569
0.0937372 0.9354466 0.0624569
0.9354466 0.9354466 0.0624569
0.9984653 0.8518675 0.8462171
0.9999437 0.9934784 0.9934695
0.8462171 0.9984653 0.8462171
0.8464195 0.9984653 0.8462171
0.8518675 0.9984653 0.8462171
0.9984653 0.9984653 0.8462171
0.9999437 0.9937101 0.9934695
0.9934695 0.9999437 0.9934695
0.9934698 0.9999437 0.9934695
0.9934784 0.9999437 0.9934695
0.9937101 0.9999437 0.9934695
0.9999437 0.9999437 0.9934695
0.0000238 0.0000238 0.0506267
0.0506267 0.0000238 0.0506267
0.9354466 0.0624569 0.0937372
0.9984653 0.8462171 0.8464195
0.9999437 0.9934695 0.9934698
0.0000238 0.0506267 0.0506267
0.0172633 0.0172633 0.0172633
0.9329391 0.0694453 0.0694453
0.998464 0.8461687 0.8461687
0.9999437 0.9934694 0.9934694
0.0624569 0.9354466 0.0937372
0.0694453 0.9329391 0.0694453
0.9329391 0.9329391 0.0694453
0.998464 0.8516256 0.8461687
0.9999437 0.993478 0.9934694
0.8462171 0.9984653 0.8464195
0.8461687 0.998464 0.8461687
0.8516256 0.998464 0.8461687
0.998464 0.998464 0.8461687
0.9999437 0.9937097 0.9934694
0.9934695 0.9999437 0.9934698
0.9934694 0.9999437 0.9934694
0.993478 0.9999437 0.9934694
0.9937097 0.9999437 0.9934694
0.9999437 0.9999437 0.9934694
0.0624569 0.0624569 0.9354466
0.0937372 0.0624569 0.9354466
0.9354466 0.0624569 0.9354466
0.9984653 0.8462171 0.8518675
0.9999437 0.9934695 0.9934784
0.0624569 0.0937372 0.9354466
0.0694453 0.0694453 0.9329391
0.9329391 0.0694453 0.9329391
0.998464 0.8461687 0.8516256
0.9999437 0.9934694 0.993478
0.0624569 0.9354466 0.9354466
0.0694453 0.9329391 0.9329391
0.9325696 0.9325696 0.9325696
0.9984638 0.8515915 0.8515915
0.9999437 0.9934779 0.9934779
0.8462171 0.9984653 0.8518675
0.8461687 0.998464 0.8516256
0.8515915 0.9984638 0.8515915
0.9984638 0.9984638 0.8515915
0.9999437 0.9937096 0.9934779
0.9934695 0.9999437 0.9934784
0.9934694 0.9999437 0.993478
0.9934779 0.9999437 0.9934779
0.9937096 0.9999437 0.9934779
0.9999437 0.9999437 0.9934779
0.8462171 0.8462171 0.9984653
0.8464195 0.8462171 0.9984653
0.8518675 0.8462171 0.9984653
0.9984653 0.8462171 0.9984653
0.9999437 0.9934695 0.9937101
0.8462171 0.8464195 0.9984653
0.8461687 0.8461687 0.998464
0.8516256 0.8461687 0.998464
0.998464 0.8461687 0.998464
0.9999437 0.9934694 0.9937097
0.8462171 0.8518675 0.9984653
0.8461687 0.8516256 0.998464
0.8515915 0.8515915 0.9984638
0.9984638 0.8515915 0.9984638
0.9999437 0.9934779 0.9937096
0.8462171 0.9984653 0.9984653
0.8461687 0.998464 0.998464
0.8515915 0.9984638 0.9984638
0.9984638 0.9984638 0.9984638
0.9999437 0.9937096 0.9937096
0.9934695 0.9999437 0.9937101
0.9934694 0.9999437 0.9937097
0.9934779 0.9999437 0.9937096
0.9937096 0.9999437 0.9937096
0.9999437 0.9999437 0.9937096
0.9934695 0.9934695 0.9999437
0.9934698 0.9934695 0.9999437
0.9934784 0.9934695 0.9999437
0.9937101 0.9934695 0.9999437
0.9999437 0.9934695 0.9999437
0.9934695 0.9934698 0.9999437
0.9934694 0.9934694 0.9999437
0.993478 0.9934694 0.9999437
0.9937097 0.9934694 0.9999437
0.9999437 0.9934694 0.9999437
0.9934695 0.9934784 0.9999437
0.9934694 0.993478 0.9999437
0.9934779 0.9934779 0.9999437
0.9937096 0.9934779 0.9999437
0.9999437 0.9934779 0.9999437
0.9934695 0.9937101 0.9999437
0.9934694 0.9937097 0.9999437
0.9934779 0.9937096 0.9999437
0.9937096 0.9937096 0.9999437
0.9999437 0.9937096 0.9999437
0.9934695 0.9999437 0.9999437
0.9934694 0.9999437 0.9999437
0.9934779 0.9999437 0.9999437
0.9937096 0.9999437 0.9999437
0.9999437 0.9999437 0.9999437
