examples/pbrNeutral.cube
TITLE "PBR Neutral sRGB"
# PBR Neutral sRGB LUT
DOMAIN_MIN 0 0 0
DOMAIN_MAX 1 1 1
LUT_3D_SIZE 57
0.0000238 0.0000238 0.0000238
0.0005417 0.0000238 0.0000238
0.0011968 0.0000238 0.0000238
0.0020256 0.0000238 0.0000238
0.0030742 0.0000238 0.0000238
0.0044007 0.0000238 0.0000238
0.006079 0.0000238 0.0000238
0.0082023 0.0000238 0.0000238
0.0108885 0.0000238 0.0000238
0.0142868 0.0000238 0.0000238
0.0185862 0.0000238 0.0000238
0.0240255 0.0000238 0.0000238
0.0309069 0.0000238 0.0000238
0.0396127 0.0000238 0.0000238
0.0506267 0.0000238 0.0000238
0.0645609 0.0000238 0.0000238
0.0821895 0.0000238 0.0000238
0.1044919 0.0000238 0.0000238
0.1327073 0.0000238 0.0000238
0.1684036 0.0000238 0.0000238
0.2135639 0.0000238 0.0000238
0.2706977 0.0000238 0.0000238
0.3429792 0.0000238 0.0000238
0.4344249 0.0000238 0.0000238
0.5501155 0.0000238 0.0000238
0.6964791 0.0000238 0.0000238
0.8407292 0.0051514 0.0051514
0.9033413 0.0279321 0.0279321
0.9354466 0.0624569 0.0624569
0.9545467 0.1059991 0.1059991
0.9669269 0.1572498 0.1572498
0.9754027 0.2151269 0.2151269
0.9814251 0.2783684 0.2783684
0.9858181 0.3454107 0.3454107
0.9890841 0.4144197 0.4144197
0.9915469 0.4834235 0.4834235
0.993424 0.5504963 0.5504963
0.9948662 0.6139459 0.6139459
0.9959813 0.6724572 0.6724572
0.9968475 0.7251659 0.7251659
0.997523 0.7716588 0.7716588
0.9980513 0.8119154 0.8119154
0.9984653 0.8462171 0.8462171
0.9987905 0.8750477 0.8750477
0.9990461 0.8990028 0.8990028
0.9992474 0.9187175 0.9187175
0.999406 0.9348153 0.9348153
0.999531 0.9478754 0.9478754
0.9996296 0.958416 0.958416
0.9997074 0.9668873 0.9668873
0.9997689 0.9736726 0.9736726
0.9998174 0.9790927 0.9790927
0.9998557 0.9834129 0.9834129
0.999886 0.9868505 0.9868505
0.9999099 0.989582 0.989582
0.9999288 0.9917501 0.9917501
0.9999437 0.9934695 0.9934695
0.0000238 0.0005417 0.0000238
0.0005417 0.0005417 0.0000238
0.0011968 0.0005417 0.0000238
0.0020256 0.0005417 0.0000238
0.0030742 0.0005417 0.0000238
0.0044007 0.0005417 0.0000238
0.006079 0.0005417 0.0000238
0.0082023 0.0005417 0.0000238
0.0108885 0.0005417 0.0000238
0.0142868 0.0005417 0.0000238
0.0185862 0.0005417 0.0000238
0.0240255 0.0005417 0.0000238
0.0309069 0.0005417 0.0000238
0.0396127 0.0005417 0.0000238
0.0506267 0.0005417 0.0000238
0.0645609 0.0005417 0.0000238
0.0821895 0.0005417 0.0000238
0.1044919 0.0005417 0.0000238
0.1327073 0.0005417 0.0000238
0.1684036 0.0005417 0.0000238
0.2135639 0.0005417 0.0000238
0.2706977 0.0005417 0.0000238
0.3429792 0.0005417 0.0000238
0.4344249 0.0005417 0.0000238
0.5501155 0.0005417 0.0000238
0.6964791 0.0005417 0.0000238
0.8407292 0.0056422 0.0051514
0.9033413 0.0283384 0.0279321
0.9354466 0.062777 0.0624569
0.9545467 0.1062449 0.1059991
0.9669269 0.1574352 0.1572498
0.9754027 0.2152645 0.2151269
0.9814251 0.278469 0.2783684
0.9858181 0.3454831 0.3454107
0.9890841 0.4144711 0.4144197
0.9915469 0.4834593 0.4834235
0.993424 0.550521 0.5504963
0.9948662 0.6139627 0.6139459
0.9959813 0.6724685 0.6724572
0.9968475 0.7251734 0.7251659
0.997523 0.7716637 0.7716588
0.9980513 0.8119186 0.8119154
0.9984653 0.8462191 0.8462171
0.9987905 0.875049 0.8750477
0.9990461 0.8990036 0.8990028
0.9992474 0.918718 0.9187175
0.999406 0.9348156 0.9348153
0.999531 0.9478756 0.9478754
0.9996296 0.9584161 0.958416
0.9997074 0.9668874 0.9668873
0.9997689 0.9736727 0.9736726
0.9998174 0.9790928 0.9790927
0.9998557 0.983413 0.9834129
0.999886 0.9868505 0.9868505
0.9999099 0.989582 0.989582
0.9999288 0.9917501 0.9917501
0.9999437 0.9934695 0.9934695
0.0000238 0.0011968 0.0000238
0.0005417 0.0011968 0.0000238
0.0011968 0.0011968 0.0000238
0.0020256 0.0011968 0.0000238
0.0030742 0.0011968 0.0000238
0.0044007 0.0011968 0.0000238
0.006079 0.0011968 0.0000238
0.0082023 0.0011968 0.0000238
0.0108885 0.0011968 0.0000238
0.0142868 0.0011968 0.0000238
0.0185862 0.0011968 0.0000238
0.0240255 0.0011968 0.0000238
0.0309069 0.0011968 0.0000238
0.0396127 0.0011968 0.0000238
0.0506267 0.0011968 0.0000238
0.0645609 0.0011968 0.0000238
0.0821895 0.0011968 0.0000238
0.1044919 0.0011968 0.0000238
0.1327073 0.0011968 0.0000238
0.1684036 0.0011968 0.0000238
0.2135639 0.0011968 0.0000238
0.2706977 0.0011968 0.0000238
0.3429792 0.0011968 0.0000238
0.4344249 0.0011968 0.0000238
0.5501155 0.0011968 0.0000238
0.6964791 0.0011968 0.0000238
0.8407292 0.0062631 0.0051514
0.9033413 0.0288523 0.0279321
0.9354466 0.063182 0.0624569
0.9545467 0.106556 0.1059991
0.9669269 0.1576697 0.1572498
0.9754027 0.2154385 0.2151269
0.9814251 0.2785962 0.2783684
0.9858181 0.3455746 0.3454107
0.9890841 0.414536 0.4144197
0.9915469 0.4835047 0.4834235
0.993424 0.5505523 0.5504963
0.9948662 0.6139839 0.6139459
0.9959813 0.6724827 0.6724572
0.9968475 0.7251829 0.7251659
0.997523 0.77167 0.7716588
0.9980513 0.8119226 0.8119154
0.9984653 0.8462218 0.8462171
0.9987905 0.8750507 0.8750477
0.9990461 0.8990047 0.8990028
0.9992474 0.9187187 0.9187175
0.999406 0.934816 0.9348153
0.999531 0.9478759 0.9478754
0.9996296 0.9584163 0.958416
0.9997074 0.9668875 0.9668873
0.9997689 0.9736727 0.9736726
0.9998174 0.9790928 0.9790927
0.9998557 0.983413 0.9834129
0.999886 0.9868505 0.9868505
0.9999099 0.989582 0.989582
0.9999288 0.9917501 0.9917501
0.9999437 0.9934695 0.9934695
0.0000238 0.0020256 0.0000238
0.0005417 0.0020256 0.0000238
0.0011968 0.0020256 0.0000238
0.0020256 0.0020256 0.0000238
0.0030742 0.0020256 0.0000238
0.0044007 0.0020256 0.0000238
0.006079 0.0020256 0.0000238
0.0082023 0.0020256 0.0000238
0.0108885 0.0020256 0.0000238
0.0142868 0.0020256 0.0000238
0.0185862 0.0020256 0.0000238
0.0240255 0.0020256 0.0000238
0.0309069 0.0020256 0.0000238
0.0396127 0.0020256 0.0000238
0.0506267 0.0020256 0.0000238
0.0645609 0.0020256 0.0000238
0.0821895 0.0020256 0.0000238
0.1044919 0.0020256 0.0000238
0.1327073 0.0020256 0.0000238
0.1684036 0.0020256 0.0000238
0.2135639 0.0020256 0.0000238
0.2706977 0.0020256 0.0000238
0.3429792 0.0020256 0.0000238
0.4344249 0.0020256 0.0000238
0.5501155 0.0020256 0.0000238
0.6964791 0.0020256 0.0000238
0.8407292 0.0070486 0.0051514
0.9033413 0.0295025 0.0279321
0.9354466 0.0636943 0.0624569
0.9545467 0.1069495 0.1059991
0.9669269 0.1579665 0.1572498
0.9754027 0.2156587 0.2151269
0.9814251 0.2787571 0.2783684
0.9858181 0.3456905 0.3454107
0.9890841 0.4146182 0.4144197
0.9915469 0.4835622 0.4834235
0.993424 0.5505918 0.5504963
0.9948662 0.6140108 0.6139459
0.9959813 0.6725008 0.6724572
0.9968475 0.7251949 0.7251659
0.997523 0.7716778 0.7716588
0.9980513 0.8119278 0.8119154
0.9984653 0.8462251 0.8462171
0.9987905 0.8750528 0.8750477
0.9990461 0.8990061 0.8990028
0.9992474 0.9187196 0.9187175
0.999406 0.9348166 0.9348153
0.999531 0.9478762 0.9478754
0.9996296 0.9584165 0.958416
0.9997074 0.9668877 0.9668873
0.9997689 0.9736728 0.9736726
0.9998174 0.9790929 0.9790927
0.9998557 0.983413 0.9834129
0.999886 0.9868506 0.9868505
0.9999099 0.989582 0.989582
0.9999288 0.9917501 0.9917501
0.9999437 0.9934695 0.9934695
0.0000238 0.0030742 0.0000238
0.0005417 0.0030742 0.0000238
0.0011968 0.0030742 0.0000238
0.0020256 0.0030742 0.0000238
0.0030742 0.0030742 0.0000238
0.0044007 0.0030742 0.0000238
0.006079 0.0030742 0.0000238
0.0082023 0.0030742 0.0000238
0.0108885 0.0030742 0.0000238
0.0142868 0.0030742 0.0000238
0.0185862 0.0030742 0.0000238
0.0240255 0.0030742 0.0000238
0.0309069 0.0030742 0.0000238
0.0396127 0.0030742 0.0000238
0.0506267 0.0030742 0.0000238
0.0645609 0.0030742 0.0000238
0.0821895 0.0030742 0.0000238
0.1044919 0.0030742 0.0000238
0.1327073 0.0030742 0.0000238
0.1684036 0.0030742 0.0000238
0.2135639 0.0030742 0.0000238
0.2706977 0.0030742 0.0000238
0.3429792 0.0030742 0.0000238
0.4344249 0.0030742 0.0000238
0.5501155 0.0030742 0.0000238
0.6964791 0.0030742 0.0000238
0.8407292 0.0080424 0.0051514
0.9033413 0.0303251 0.0279321
0.9354466 0.0643425 0.0624569
0.9545467 0.1074473 0.1059991
0.9669269 0.1583419 0.1572498
0.9754027 0.2159373 0.2151269
0.9814251 0.2789607 0.2783684
0.9858181 0.3458371 0.3454107
0.9890841 0.4147221 0.4144197
0.9915469 0.4836348 0.4834235
0.993424 0.5506419 0.5504963
0.9948662 0.6140448 0.6139459
0.9959813 0.6725236 0.6724572
0.9968475 0.72521 0.7251659
0.997523 0.7716878 0.7716588
0.9980513 0.8119343 0.8119154
0.9984653 0.8462293 0.8462171
0.9987905 0.8750555 0.8750477
0.9990461 0.8990078 0.8990028
0.9992474 0.9187207 0.9187175
0.999406 0.9348173 0.9348153
0.999531 0.9478767 0.9478754
0.9996296 0.9584168 0.958416
0.9997074 0.9668878 0.9668873
0.9997689 0.9736729 0.9736726
0.9998174 0.9790929 0.9790927
0.9998557 0.9834131 0.9834129
0.999886 0.9868506 0.9868505
0.9999099 0.9895821 0.989582
0.9999288 0.9917501 0.9917501
0.9999437 0.9934695 0.9934695
0.0000238 0.0044007 0.0000238
0.0005417 0.0044007 0.0000238
0.0011968 0.0044007 0.0000238
0.0020256 0.0044007 0.0000238
0.0030742 0.0044007 0.0000238
0.0044007 0.0044007 0.0000238
0.006079 0.0044007 0.0000238
0.0082023 0.0044007 0.0000238
0.0108885 0.0044007 0.0000238
0.0142868 0.0044007 0.0000238
0.0185862 0.0044007 0.0000238
0.0240255 0.0044007 0.0000238
0.0309069 0.0044007 0.0000238
0.0396127 0.0044007 0.0000238
0.0506267 0.0044007 0.0000238
0.0645609 0.0044007 0.0000238
0.0821895 0.0044007 0.0000238
0.1044919 0.0044007 0.0000238
0.1327073 0.0044007 0.0000238
0.1684036 0.0044007 0.0000238
0.2135639 0.0044007 0.0000238
0.2706977 0.0044007 0.0000238
0.3429792 0.0044007 0.0000238
0.4344249 0.0044007 0.0000238
0.5501155 0.0044007 0.0000238
0.6964791 0.0044007 0.0000238
0.8407292 0.0092997 0.0051514
0.9033413 0.0313658 0.0279321
0.9354466 0.0651625 0.0624569
0.9545467 0.1080772 0.1059991
0.9669269 0.1588168 0.1572498
0.9754027 0.2162897 0.2151269
0.9814251 0.2792183 0.2783684
0.9858181 0.3460225 0.3454107
0.9890841 0.4148536 0.4144197
0.9915469 0.4837267 0.4834235
0.993424 0.5507052 0.5504963
0.9948662 0.6140879 0.6139459
0.9959813 0.6725525 0.6724572
0.9968475 0.7252292 0.7251659
0.997523 0.7717004 0.7716588
0.9980513 0.8119425 0.8119154
0.9984653 0.8462346 0.8462171
0.9987905 0.8750589 0.8750477
0.9990461 0.89901 0.8990028
0.9992474 0.9187221 0.9187175
0.999406 0.9348182 0.9348153
0.999531 0.9478772 0.9478754
0.9996296 0.9584171 0.958416
0.9997074 0.9668881 0.9668873
0.9997689 0.9736731 0.9736726
0.9998174 0.979093 0.9790927
0.9998557 0.9834131 0.9834129
0.999886 0.9868506 0.9868505
0.9999099 0.9895821 0.989582
0.9999288 0.9917501 0.9917501
0.9999437 0.9934695 0.9934695
0.0000238 0.006079 0.0000238
0.0005417 0.006079 0.0000238
0.0011968 0.006079 0.0000238
0.0020256 0.006079 0.0000238
0.0030742 0.006079 0.0000238
0.0044007 0.006079 0.0000238
0.006079 0.006079 0.0000238
0.0082023 0.006079 0.0000238
0.0108885 0.006079 0.0000238
0.0142868 0.006079 0.0000238
0.0185862 0.006079 0.0000238
0.0240255 0.006079 0.0000238
0.0309069 0.006079 0.0000238
0.0396127 0.006079 0.0000238
0.0506267 0.006079 0.0000238
0.0645609 0.006079 0.0000238
0.0821895 0.006079 0.0000238
0.1044919 0.006079 0.0000238
0.1327073 0.006079 0.0000238
0.1684036 0.006079 0.0000238
0.2135639 0.006079 0.0000238
0.2706977 0.006079 0.0000238
0.3429792 0.006079 0.0000238
0.4344249 0.006079 0.0000238
0.5501155 0.006079 0.0000238
0.6964791 0.006079 0.0000238
0.8407292 0.0108903 0.0051514
0.9033413 0.0326824 0.0279321
0.9354466 0.0662 0.0624569
0.9545467 0.108874 0.1059991
0.9669269 0.1594176 0.1572498
0.9754027 0.2167356 0.2151269
0.9814251 0.2795441 0.2783684
0.9858181 0.3462571 0.3454107
0.9890841 0.41502 0.4144197
0.9915469 0.483843 0.4834235
0.993424 0.5507853 0.5504963
0.9948662 0.6141423 0.6139459
0.9959813 0.6725891 0.6724572
0.9968475 0.7252535 0.7251659
0.997523 0.7717164 0.7716588
0.9980513 0.8119529 0.8119154
0.9984653 0.8462413 0.8462171
0.9987905 0.8750632 0.8750477
0.9990461 0.8990127 0.8990028
0.9992474 0.9187238 0.9187175
0.999406 0.9348193 0.9348153
0.999531 0.9478779 0.9478754
0.9996296 0.9584176 0.958416
0.9997074 0.9668883 0.9668873
0.9997689 0.9736733 0.9736726
0.9998174 0.9790931 0.9790927
0.9998557 0.9834132 0.9834129
0.999886 0.9868507 0.9868505
0.9999099 0.9895821 0.989582
0.9999288 0.9917502 0.9917501
0.9999437 0.9934695 0.9934695
0.0000238 0.0082023 0.0000238
0.0005417 0.0082023 0.0000238
0.0011968 0.0082023 0.0000238
0.0020256 0.0082023 0.0000238
0.0030742 0.0082023 0.0000238
0.0044007 0.0082023 0.0000238
0.006079 0.0082023 0.0000238
0.0082023 0.0082023 0.0000238
0.0108885 0.0082023 0.0000238
0.0142868 0.0082023 0.0000238
0.0185862 0.0082023 0.0000238
0.0240255 0.0082023 0.0000238
0.0309069 0.0082023 0.0000238
0.0396127 0.0082023 0.0000238
0.0506267 0.0082023 0.0000238
0.0645609 0.0082023 0.0000238
0.0821895 0.0082023 0.0000238
0.1044919 0.0082023 0.0000238
0.1327073 0.0082023 0.0000238
0.1684036 0.0082023 0.0000238
0.2135639 0.0082023 0.0000238
0.2706977 0.0082023 0.0000238
0.3429792 0.0082023 0.0000238
0.4344249 0.0082023 0.0000238
0.5501155 0.0082023 0.0000238
0.6964791 0.0082023 0.0000238
0.8407292 0.0129027 0.0051514
0.9033413 0.0343481 0.0279321
0.9354466 0.0675125 0.0624569
0.9545467 0.1098821 0.1059991
0.9669269 0.1601778 0.1572498
0.9754027 0.2172997 0.2151269
0.9814251 0.2799564 0.2783684
0.9858181 0.3465539 0.3454107
0.9890841 0.4152305 0.4144197
0.9915469 0.4839901 0.4834235
0.993424 0.5508867 0.5504963
0.9948662 0.6142112 0.6139459
0.9959813 0.6726353 0.6724572
0.9968475 0.7252842 0.7251659
0.997523 0.7717365 0.7716588
0.9980513 0.811966 0.8119154
0.9984653 0.8462498 0.8462171
0.9987905 0.8750687 0.8750477
0.9990461 0.8990162 0.8990028
0.9992474 0.918726 0.9187175
0.999406 0.9348207 0.9348153
0.999531 0.9478788 0.9478754
0.9996296 0.9584181 0.958416
0.9997074 0.9668887 0.9668873
0.9997689 0.9736735 0.9736726
0.9998174 0.9790933 0.9790927
0.9998557 0.9834133 0.9834129
0.999886 0.9868507 0.9868505
0.9999099 0.9895821 0.989582
0.9999288 0.9917502 0.9917501
0.9999437 0.9934695 0.9934695
0.0000238 0.0108885 0.0000238
0.0005417 0.0108885 0.0000238
0.0011968 0.0108885 0.0000238
0.0020256 0.0108885 0.0000238
0.0030742 0.0108885 0.0000238
0.0044007 0.0108885 0.0000238
0.006079 0.0108885 0.0000238
0.0082023 0.0108885 0.0000238
0.0108885 0.0108885 0.0000238
0.0142868 0.0108885 0.0000238
0.0185862 0.0108885 0.0000238
0.0240255 0.0108885 0.0000238
0.0309069 0.0108885 0.0000238
0.0396127 0.0108885 0.0000238
0.0506267 0.0108885 0.0000238
0.0645609 0.0108885 0.0000238
0.0821895 0.0108885 0.0000238
0.1044919 0.0108885 0.0000238
0.1327073 0.0108885 0.0000238
0.1684036 0.0108885 0.0000238
0.2135639 0.0108885 0.0000238
0.2706977 0.0108885 0.0000238
0.3429792 0.0108885 0.0000238
0.4344249 0.0108885 0.0000238
0.5501155 0.0108885 0.0000238
0.6964791 0.0108885 0.0000238
0.8407292 0.0154486 0.0051514
0.9033413 0.0364554 0.0279321
0.9354466 0.0691729 0.0624569
0.9545467 0.1111575 0.1059991
0.9669269 0.1611395 0.1572498
0.9754027 0.2180133 0.2151269
0.9814251 0.2804779 0.2783684
0.9858181 0.3469293 0.3454107
0.9890841 0.4154968 0.4144197
0.9915469 0.4841762 0.4834235
0.993424 0.5510149 0.5504963
0.9948662 0.6142984 0.6139459
0.9959813 0.6726938 0.6724572
0.9968475 0.725323 0.7251659
0.997523 0.771762 0.7716588
0.9980513 0.8119826 0.8119154
0.9984653 0.8462605 0.8462171
0.9987905 0.8750756 0.8750477
0.9990461 0.8990206 0.8990028
0.9992474 0.9187289 0.9187175
0.999406 0.9348225 0.9348153
0.999531 0.9478799 0.9478754
0.9996296 0.9584189 0.958416
0.9997074 0.9668891 0.9668873
0.9997689 0.9736738 0.9736726
0.9998174 0.9790934 0.9790927
0.9998557 0.9834134 0.9834129
0.999886 0.9868508 0.9868505
0.9999099 0.9895822 0.989582
0.9999288 0.9917502 0.9917501
0.9999437 0.9934696 0.9934695
0.0000238 0.0142868 0.0000238
0.0005417 0.0142868 0.0000238
0.0011968 0.0142868 0.0000238
0.0020256 0.0142868 0.0000238
0.0030742 0.0142868 0.0000238
0.0044007 0.0142868 0.0000238
0.006079 0.0142868 0.0000238
0.0082023 0.0142868 0.0000238
0.0108885 0.0142868 0.0000238
0.0142868 0.0142868 0.0000238
0.0185862 0.0142868 0.0000238
0.0240255 0.0142868 0.0000238
0.0309069 0.0142868 0.0000238
0.0396127 0.0142868 0.0000238
0.0506267 0.0142868 0.0000238
0.0645609 0.0142868 0.0000238
0.0821895 0.0142868 0.0000238
0.1044919 0.0142868 0.0000238
0.1327073 0.0142868 0.0000238
0.1684036 0.0142868 0.0000238
0.2135639 0.0142868 0.0000238
0.2706977 0.0142868 0.0000238
0.3429792 0.0142868 0.0000238
0.4344249 0.0142868 0.0000238
0.5501155 0.0142868 0.0000238
0.6964791 0.0142868 0.0000238
0.8407292 0.0186694 0.0051514
0.9033413 0.0391214 0.0279321
0.9354466 0.0712736 0.0624569
0.9545467 0.112771 0.1059991
0.9669269 0.1623561 0.1572498
0.9754027 0.2189162 0.2151269
0.9814251 0.2811378 0.2783684
0.9858181 0.3474044 0.3454107
0.9890841 0.4158337 0.4144197
0.9915469 0.4844116 0.4834235
0.993424 0.5511771 0.5504963
0.9948662 0.6144087 0.6139459
0.9959813 0.6727678 0.6724572
0.9968475 0.7253722 0.7251659
0.997523 0.7717943 0.7716588
0.9980513 0.8120036 0.8119154
0.9984653 0.8462741 0.8462171
0.9987905 0.8750843 0.8750477
0.9990461 0.8990262 0.8990028
0.9992474 0.9187324 0.9187175
0.999406 0.9348247 0.9348153
0.999531 0.9478814 0.9478754
0.9996296 0.9584198 0.958416
0.9997074 0.9668897 0.9668873
0.9997689 0.9736741 0.9736726
0.9998174 0.9790937 0.9790927
0.9998557 0.9834135 0.9834129
0.999886 0.9868509 0.9868505
0.9999099 0.9895822 0.989582
0.9999288 0.9917502 0.9917501
0.9999437 0.9934696 0.9934695
0.0000238 0.0185862 0.0000238
0.0005417 0.0185862 0.0000238
0.0011968 0.0185862 0.0000238
0.0020256 0.0185862 0.0000238
0.0030742 0.0185862 0.0000238
0.0044007 0.0185862 0.0000238
0.006079 0.0185862 0.0000238
0.0082023 0.0185862 0.0000238
0.0108885 0.0185862 0.0000238
0.0142868 0.0185862 0.0000238
0.0185862 0.0185862 0.0000238
0.0240255 0.0185862 0.0000238
0.0309069 0.0185862 0.0000238
0.0396127 0.0185862 0.0000238
0.0506267 0.0185862 0.0000238
0.0645609 0.0185862 0.0000238
0.0821895 0.0185862 0.0000238
0.1044919 0.0185862 0.0000238
0.1327073 0.0185862 0.0000238
0.1684036 0.0185862 0.0000238
0.2135639 0.0185862 0.0000238
0.2706977 0.0185862 0.0000238
0.3429792 0.0185862 0.0000238
0.4344249 0.0185862 0.0000238
0.5501155 0.0185862 0.0000238
0.6964791 0.0185862 0.0000238
0.8407292 0.0227443 0.0051514
0.9033413 0.0424942 0.0279321
0.9354466 0.0739313 0.0624569
0.9545467 0.1148123 0.1059991
0.9669269 0.1638954 0.1572498
0.9754027 0.2200584 0.2151269
0.9814251 0.2819726 0.2783684
0.9858181 0.3480054 0.3454107
0.9890841 0.4162599 0.4144197
0.9915469 0.4847095 0.4834235
0.993424 0.5513823 0.5504963
0.9948662 0.6145482 0.6139459
0.9959813 0.6728615 0.6724572
0.9968475 0.7254343 0.7251659
0.997523 0.7718352 0.7716588
0.9980513 0.8120303 0.8119154
0.9984653 0.8462913 0.8462171
0.9987905 0.8750954 0.8750477
0.9990461 0.8990333 0.8990028
0.9992474 0.9187369 0.9187175
0.999406 0.9348276 0.9348153
0.999531 0.9478832 0.9478754
0.9996296 0.9584209 0.958416
0.9997074 0.9668904 0.9668873
0.9997689 0.9736746 0.9736726
0.9998174 0.9790939 0.9790927
0.9998557 0.9834137 0.9834129
0.999886 0.986851 0.9868505
0.9999099 0.9895823 0.989582
0.9999288 0.9917503 0.9917501
0.9999437 0.9934696 0.9934695
0.0000238 0.0240255 0.0000238
0.0005417 0.0240255 0.0000238
0.0011968 0.0240255 0.0000238
0.0020256 0.0240255 0.0000238
0.0030742 0.0240255 0.0000238
0.0044007 0.0240255 0.0000238
0.006079 0.0240255 0.0000238
0.0082023 0.0240255 0.0000238
0.0108885 0.0240255 0.0000238
0.0142868 0.0240255 0.0000238
0.0185862 0.0240255 0.0000238
0.0240255 0.0240255 0.0000238
0.0309069 0.0240255 0.0000238
0.0396127 0.0240255 0.0000238
0.0506267 0.0240255 0.0000238
0.0645609 0.0240255 0.0000238
0.0821895 0.0240255 0.0000238
0.1044919 0.0240255 0.0000238
0.1327073 0.0240255 0.0000238
0.1684036 0.0240255 0.0000238
0.2135639 0.0240255 0.0000238
0.2706977 0.0240255 0.0000238
0.3429792 0.0240255 0.0000238
0.4344249 0.0240255 0.0000238
0.5501155 0.0240255 0.0000238
0.6964791 0.0240255 0.0000238
0.8407292 0.0278994 0.0051514
0.9033413 0.0467613 0.0279321
0.9354466 0.0772936 0.0624569
0.9545467 0.1173948 0.1059991
0.9669269 0.1658427 0.1572498
0.9754027 0.2215035 0.2151269
0.9814251 0.2830287 0.2783684
0.9858181 0.3487657 0.3454107
0.9890841 0.4167992 0.4144197
0.9915469 0.4850864 0.4834235
0.993424 0.551642 0.5504963
0.9948662 0.6147247 0.6139459
0.9959813 0.67298 0.6724572
0.9968475 0.725513 0.7251659
0.997523 0.7718869 0.7716588
0.9980513 0.8120639 0.8119154
0.9984653 0.8463131 0.8462171
0.9987905 0.8751094 0.8750477
0.9990461 0.8990422 0.8990028
0.9992474 0.9187426 0.9187175
0.999406 0.9348312 0.9348153
0.999531 0.9478854 0.9478754
0.9996296 0.9584223 0.958416
0.9997074 0.9668913 0.9668873
0.9997689 0.9736751 0.9736726
0.9998174 0.9790943 0.9790927
0.9998557 0.9834139 0.9834129
0.999886 0.9868511 0.9868505
0.9999099 0.9895824 0.989582
0.9999288 0.9917503 0.9917501
0.9999437 0.9934696 0.9934695
0.0000238 0.0309069 0.0000238
0.0005417 0.0309069 0.0000238
0.0011968 0.0309069 0.0000238
0.0020256 0.0309069 0.0000238
0.0030742 0.0309069 0.0000238
0.0044007 0.0309069 0.0000238
0.006079 0.0309069 0.0000238
0.0082023 0.0309069 0.0000238
0.0108885 0.0309069 0.0000238
0.0142868 0.0309069 0.0000238
0.0185862 0.0309069 0.0000238
0.0240255 0.0309069 0.0000238
0.0309069 0.0309069 0.0000238
0.0396127 0.0309069 0.0000238
0.0506267 0.0309069 0.0000238
0.0645609 0.0309069 0.0000238
0.0821895 0.0309069 0.0000238
0.1044919 0.0309069 0.0000238
0.1327073 0.0309069 0.0000238
0.1684036 0.0309069 0.0000238
0.2135639 0.0309069 0.0000238
0.2706977 0.0309069 0.0000238
0.3429792 0.0309069 0.0000238
0.4344249 0.0309069 0.0000238
0.5501155 0.0309069 0.0000238
0.6964791 0.0309069 0.0000238
0.8407292 0.0344214 0.0051514
0.9033413 0.0521597 0.0279321
0.9354466 0.0815473 0.0624569
0.9545467 0.120662 0.1059991
0.9669269 0.1683064 0.1572498
0.9754027 0.2233317 0.2151269
0.9814251 0.2843648 0.2783684
0.9858181 0.3497276 0.3454107
0.9890841 0.4174814 0.4144197
0.9915469 0.4855631 0.4834235
0.993424 0.5519704 0.5504963
0.9948662 0.6149479 0.6139459
0.9959813 0.6731299 0.6724572
0.9968475 0.7256124 0.7251659
0.997523 0.7719522 0.7716588
0.9980513 0.8121065 0.8119154
0.9984653 0.8463406 0.8462171
0.9987905 0.8751271 0.8750477
0.9990461 0.8990535 0.8990028
0.9992474 0.9187498 0.9187175
0.999406 0.9348357 0.9348153
0.999531 0.9478883 0.9478754
0.9996296 0.9584241 0.958416
0.9997074 0.9668925 0.9668873
0.9997689 0.9736758 0.9736726
0.9998174 0.9790948 0.9790927
0.9998557 0.9834142 0.9834129
0.999886 0.9868513 0.9868505
0.9999099 0.9895825 0.989582
0.9999288 0.9917504 0.9917501
0.9999437 0.9934697 0.9934695
0.0000238 0.0396127 0.0000238
0.0005417 0.0396127 0.0000238
0.0011968 0.0396127 0.0000238
0.0020256 0.0396127 0.0000238
0.0030742 0.0396127 0.0000238
0.0044007 0.0396127 0.0000238
0.006079 0.0396127 0.0000238
0.0082023 0.0396127 0.0000238
0.0108885 0.0396127 0.0000238
0.0142868 0.0396127 0.0000238
0.0185862 0.0396127 0.0000238
0.0240255 0.0396127 0.0000238
0.0309069 0.0396127 0.0000238
0.0396127 0.0396127 0.0000238
0.0506267 0.0396127 0.0000238
0.0645609 0.0396127 0.0000238
0.0821895 0.0396127 0.0000238
0.1044919 0.0396127 0.0000238
0.1327073 0.0396127 0.0000238
0.1684036 0.0396127 0.0000238
0.2135639 0.0396127 0.0000238
0.2706977 0.0396127 0.0000238
0.3429792 0.0396127 0.0000238
0.4344249 0.0396127 0.0000238
0.5501155 0.0396127 0.0000238
0.6964791 0.0396127 0.0000238
0.8407292 0.0426726 0.0051514
0.9033413 0.0589895 0.0279321
0.9354466 0.0869288 0.0624569
0.9545467 0.1247954 0.1059991
0.9669269 0.1714232 0.1572498
0.9754027 0.2256446 0.2151269
0.9814251 0.2860552 0.2783684
0.9858181 0.3509445 0.3454107
0.9890841 0.4183444 0.4144197
0.9915469 0.4861663 0.4834235
0.993424 0.552386 0.5504963
0.9948662 0.6152304 0.6139459
0.9959813 0.6733195 0.6724572
0.9968475 0.7257383 0.7251659
0.997523 0.7720349 0.7716588
0.9980513 0.8121604 0.8119154
0.9984653 0.8463755 0.8462171
0.9987905 0.8751494 0.8750477
0.9990461 0.8990678 0.8990028
0.9992474 0.9187589 0.9187175
0.999406 0.9348415 0.9348153
0.999531 0.947892 0.9478754
0.9996296 0.9584264 0.958416
0.9997074 0.9668939 0.9668873
0.9997689 0.9736768 0.9736726
0.9998174 0.9790953 0.9790927
0.9998557 0.9834146 0.9834129
0.999886 0.9868515 0.9868505
0.9999099 0.9895826 0.989582
0.9999288 0.9917505 0.9917501
0.9999437 0.9934697 0.9934695
0.0000238 0.0506267 0.0000238
0.0005417 0.0506267 0.0000238
0.0011968 0.0506267 0.0000238
0.0020256 0.0506267 0.0000238
