examples/pbrNeutral.cube
TITLE "PBR Neutral sRGB"
# PBR Neutral sRGB LUT
DOMAIN_MIN 0 0 0
DOMAIN_MAX 1 1 1
LUT_3D_SIZE 9
0.0000238 0.0000238 0.0000238
0.0082023 0.0000238 0.0000238
0.0506267 0.0000238 0.0000238
0.2706977 0.0000238 0.0000238
0.9354466 0.0624569 0.0624569
0.9915469 0.4834235 0.4834235
0.9984653 0.8462171 0.8462171
0.9997074 0.9668873 0.9668873
0.9999437 0.9934695 0.9934695
0.0000238 0.0082023 0.0000238
0.0082023 0.0082023 0.0000238
0.0506267 0.0082023 0.0000238
0.2706977 0.0082023 0.0000238
0.9354466 0.0675125 0.0624569
0.9915469 0.4839901 0.4834235
0.9984653 0.8462498 0.8462171
0.9997074 0.9668887 0.9668873
0.9999437 0.9934695 0.9934695
0.0000238 0.0506267 0.0000238
0.0082023 0.0506267 0.0000238
0.0506267 0.0506267 0.0000238
0.2706977 0.0506267 0.0000238
0.9354466 0.0937372 0.0624569
0.9915469 0.4869294 0.4834235
0.9984653 0.8464195 0.8462171
0.9997074 0.9668957 0.9668873
0.9999437 0.9934698 0.9934695
0.0000238 0.2706977 0.0000238
0.0082023 0.2706977 0.0000238
0.0506267 0.2706977 0.0000238
0.2706977 0.2706977 0.0000238
0.9354466 0.2297741 0.0624569
0.9915469 0.5021764 0.4834235
0.9984653 0.8473 0.8462171
0.9997074 0.9669323 0.9668873
0.9999437 0.9934712 0.9934695
0.0624569 0.9354466 0.0624569
0.0675125 0.9354466 0.0624569
0.0937372 0.9354466 0.0624569
0.2297741 0.9354466 0.0624569
0.9354466 0.9354466 0.0624569
0.9915469 0.5812684 0.4834235
0.9984653 0.8518675 0.8462171
0.9997074 0.9671221 0.9668873
0.9999437 0.9934784 0.9934695
0.4834235 0.9915469 0.4834235
0.4839901 0.9915469 0.4834235
0.4869294 0.9915469 0.4834235
0.5021764 0.9915469 0.4834235
0.5812684 0.9915469 0.4834235
0.9915469 0.9915469 0.4834235
0.9984653 0.8755606 0.8462171
0.9997074 0.9681067 0.9668873
0.9999437 0.9935159 0.9934695
0.8462171 0.9984653 0.8462171
0.8462498 0.9984653 0.8462171
0.8464195 0.9984653 0.8462171
0.8473 0.9984653 0.8462171
0.8518675 0.9984653 0.8462171
0.8755606 0.9984653 0.8462171
0.9984653 0.9984653 0.8462171
0.9997074 0.973214 0.9668873
0.9999437 0.9937101 0.9934695
0.9668873 0.9997074 0.9668873
0.9668887 0.9997074 0.9668873
0.9668957 0.9997074 0.9668873
0.9669323 0.9997074 0.9668873
0.9671221 0.9997074 0.9668873
0.9681067 0.9997074 0.9668873
0.973214 0.9997074 0.9668873
0.9997074 0.9997074 0.9668873
0.9999437 0.9947176 0.9934695
0.9934695 0.9999437 0.9934695
0.9934695 0.9999437 0.9934695
0.9934698 0.9999437 0.9934695
0.9934712 0.9999437 0.9934695
0.9934784 0.9999437 0.9934695
0.9935159 0.9999437 0.9934695
0.9937101 0.9999437 0.9934695
0.9947176 0.9999437 0.9934695
0.9999437 0.9999437 0.9934695
0.0000238 0.0000238 0.0082023
0.0082023 0.0000238 0.0082023
0.0506267 0.0000238 0.0082023
0.2706977 0.0000238 0.0082023
0.9354466 0.0624569 0.0675125
0.9915469 0.4834235 0.4839901
0.9984653 0.8462171 0.8462498
0.9997074 0.9668873 0.9668887
0.9999437 0.9934695 0.9934695
0.0000238 0.0082023 0.0082023
0.0006416 0.0006416 0.0006416
0.043066 0.0006416 0.0006416
0.2631369 0.0006416 0.0006416
0.9348949 0.0619473 0.0619473
0.9915376 0.4831666 0.4831666
0.998465 0.8461929 0.8461929
0.9997074 0.9668862 0.9668862
0.9999437 0.9934694 0.9934694
0.0000238 0.0506267 0.0082023
0.0006416 0.043066 0.0006416
0.043066 0.043066 0.0006416
0.2631369 0.043066 0.0006416
0.9348949 0.0883235 0.0619473
0.9915376 0.4861106 0.4831666
0.998465 0.8463627 0.8461929
0.9997074 0.9668932 0.9668862
0.9999437 0.9934697 0.9934694
0.0000238 0.2706977 0.0082023
0.0006416 0.2631369 0.0006416
0.043066 0.2631369 0.0006416
0.2631369 0.2631369 0.0006416
0.9348949 0.2251463 0.0619473
0.9915376 0.5013822 0.4831666
0.998465 0.8472436 0.8461929
0.9997074 0.9669298 0.9668862
0.9999437 0.9934711 0.9934694
0.0624569 0.9354466 0.0675125
0.0619473 0.9348949 0.0619473
0.0883235 0.9348949 0.0619473
0.2251463 0.9348949 0.0619473
0.9348949 0.9348949 0.0619473
0.9915376 0.580601 0.4831666
0.998465 0.8518127 0.8461929
0.9997074 0.9671197 0.9668862
0.9999437 0.9934783 0.9934694
0.4834235 0.9915469 0.4839901
0.4831666 0.9915376 0.4831666
0.4861106 0.9915376 0.4831666
0.5013822 0.9915376 0.4831666
0.580601 0.9915376 0.4831666
0.9915376 0.9915376 0.4831666
0.998465 0.8755147 0.8461929
0.9997074 0.9681043 0.9668862
0.9999437 0.9935158 0.9934694
0.8462171 0.9984653 0.8462498
0.8461929 0.998465 0.8461929
0.8463627 0.998465 0.8461929
0.8472436 0.998465 0.8461929
0.8518127 0.998465 0.8461929
0.8755147 0.998465 0.8461929
0.998465 0.998465 0.8461929
0.9997074 0.973212 0.9668862
0.9999437 0.99371 0.9934694
0.9668873 0.9997074 0.9668887
0.9668862 0.9997074 0.9668862
0.9668932 0.9997074 0.9668862
0.9669298 0.9997074 0.9668862
0.9671197 0.9997074 0.9668862
0.9681043 0.9997074 0.9668862
0.973212 0.9997074 0.9668862
0.9997074 0.9997074 0.9668862
0.9999437 0.9947175 0.9934694
0.9934695 0.9999437 0.9934695
0.9934694 0.9999437 0.9934694
0.9934697 0.9999437 0.9934694
0.9934711 0.9999437 0.9934694
0.9934783 0.9999437 0.9934694
0.9935158 0.9999437 0.9934694
0.99371 0.9999437 0.9934694
0.9947175 0.9999437 0.9934694
0.9999437 0.9999437 0.9934694
0.0000238 0.0000238 0.0506267
0.0082023 0.0000238 0.0506267
0.0506267 0.0000238 0.0506267
0.2706977 0.0000238 0.0506267
0.9354466 0.0624569 0.0937372
0.9915469 0.4834235 0.4869294
0.9984653 0.8462171 0.8464195
0.9997074 0.9668873 0.9668957
0.9999437 0.9934695 0.9934698
0.0000238 0.0082023 0.0506267
0.0006416 0.0006416 0.043066
0.043066 0.0006416 0.043066
0.2631369 0.0006416 0.043066
0.9348949 0.0619473 0.0883235
0.9915376 0.4831666 0.4861106
0.998465 0.8461929 0.8463627
0.9997074 0.9668862 0.9668932
0.9999437 0.9934694 0.9934697
0.0000238 0.0506267 0.0506267
0.0006416 0.043066 0.043066
0.0172633 0.0172633 0.0172633
0.2373343 0.0172633 0.0172633
0.9329391 0.0694453 0.0694453
0.9915054 0.4833013 0.4833013
0.998464 0.8461687 0.8461687
0.9997074 0.9668847 0.9668847
0.9999437 0.9934694 0.9934694
0.0000238 0.2706977 0.0506267
0.0006416 0.2631369 0.043066
0.0172633 0.2373343 0.0172633
0.2373343 0.2373343 0.0172633
0.9329391 0.209003 0.0694453
0.9915054 0.4986567 0.4833013
0.998464 0.8470507 0.8461687
0.9997074 0.9669214 0.9668847
0.9999437 0.9934708 0.9934694
0.0624569 0.9354466 0.0937372
0.0619473 0.9348949 0.0883235
0.0694453 0.9329391 0.0694453
0.209003 0.9329391 0.0694453
0.9329391 0.9329391 0.0694453
0.9915054 0.5783109 0.4833013
0.998464 0.8516256 0.8461687
0.9997074 0.9671112 0.9668847
0.9999437 0.993478 0.9934694
0.4834235 0.9915469 0.4869294
0.4831666 0.9915376 0.4861106
0.4833013 0.9915054 0.4833013
0.4986567 0.9915054 0.4833013
0.5783109 0.9915054 0.4833013
0.9915054 0.9915054 0.4833013
0.998464 0.8753576 0.8461687
0.9997074 0.9680961 0.9668847
0.9999437 0.9935154 0.9934694
0.8462171 0.9984653 0.8464195
0.8461929 0.998465 0.8463627
0.8461687 0.998464 0.8461687
0.8470507 0.998464 0.8461687
0.8516256 0.998464 0.8461687
0.8753576 0.998464 0.8461687
0.998464 0.998464 0.8461687
0.9997074 0.9732051 0.9668847
0.9999437 0.9937097 0.9934694
0.9668873 0.9997074 0.9668957
0.9668862 0.9997074 0.9668932
0.9668847 0.9997074 0.9668847
0.9669214 0.9997074 0.9668847
0.9671112 0.9997074 0.9668847
0.9680961 0.9997074 0.9668847
0.9732051 0.9997074 0.9668847
0.9997074 0.9997074 0.9668847
0.9999437 0.9947172 0.9934694
0.9934695 0.9999437 0.9934698
0.9934694 0.9999437 0.9934697
0.9934694 0.9999437 0.9934694
0.9934708 0.9999437 0.9934694
0.993478 0.9999437 0.9934694
0.9935154 0.9999437 0.9934694
0.9937097 0.9999437 0.9934694
0.9947172 0.9999437 0.9934694
0.9999437 0.9999437 0.9934694
0.0000238 0.0000238 0.2706977
0.0082023 0.0000238 0.2706977
0.0506267 0.0000238 0.2706977
0.2706977 0.0000238 0.2706977
0.9354466 0.0624569 0.2297741
0.9915469 0.4834235 0.5021764
0.9984653 0.8462171 0.8473
0.9997074 0.9668873 0.9669323
0.9999437 0.9934695 0.9934712
0.0000238 0.0082023 0.2706977
0.0006416 0.0006416 0.2631369
0.043066 0.0006416 0.2631369
0.2631369 0.0006416 0.2631369
0.9348949 0.0619473 0.2251463
0.9915376 0.4831666 0.5013822
0.998465 0.8461929 0.8472436
0.9997074 0.9668862 0.9669298
0.9999437 0.9934694 0.9934711
0.0000238 0.0506267 0.2706977
0.0006416 0.043066 0.2631369
0.0172633 0.0172633 0.2373343
0.2373343 0.0172633 0.2373343
0.9329391 0.0694453 0.209003
0.9915054 0.4833013 0.4986567
0.998464 0.8461687 0.8470507
0.9997074 0.9668847 0.9669214
0.9999437 0.9934694 0.9934708
0.0000238 0.2706977 0.2706977
0.0006416 0.2631369 0.2631369
0.0172633 0.2373343 0.2373343
0.2326269 0.2326269 0.2326269
0.9325696 0.2059983 0.2059983
0.9914995 0.498157 0.498157
0.9984638 0.8470154 0.8470154
0.9997074 0.9669198 0.9669198
0.9999437 0.9934707 0.9934707
0.0624569 0.9354466 0.2297741
0.0619473 0.9348949 0.2251463
0.0694453 0.9329391 0.209003
0.2059983 0.9325696 0.2059983
0.9325696 0.9325696 0.2059983
0.9914995 0.577891 0.498157
0.9984638 0.8515915 0.8470154
0.9997074 0.9671097 0.9669198
0.9999437 0.9934779 0.9934707
0.4834235 0.9915469 0.5021764
0.4831666 0.9915376 0.5013822
0.4833013 0.9915054 0.4986567
0.498157 0.9914995 0.498157
0.577891 0.9914995 0.498157
0.9914995 0.9914995 0.498157
0.9984638 0.875329 0.8470154
0.9997074 0.9680946 0.9669198
0.9999437 0.9935154 0.9934707
0.8462171 0.9984653 0.8473
0.8461929 0.998465 0.8472436
0.8461687 0.998464 0.8470507
0.8470154 0.9984638 0.8470154
0.8515915 0.9984638 0.8470154
0.875329 0.9984638 0.8470154
0.9984638 0.9984638 0.8470154
0.9997074 0.9732039 0.9669198
0.9999437 0.9937096 0.9934707
0.9668873 0.9997074 0.9669323
0.9668862 0.9997074 0.9669298
0.9668847 0.9997074 0.9669214
0.9669198 0.9997074 0.9669198
0.9671097 0.9997074 0.9669198
0.9680946 0.9997074 0.9669198
0.9732039 0.9997074 0.9669198
0.9997074 0.9997074 0.9669198
0.9999437 0.9947172 0.9934707
0.9934695 0.9999437 0.9934712
0.9934694 0.9999437 0.9934711
0.9934694 0.9999437 0.9934708
0.9934707 0.9999437 0.9934707
0.9934779 0.9999437 0.9934707
0.9935154 0.9999437 0.9934707
0.9937096 0.9999437 0.9934707
0.9947172 0.9999437 0.9934707
0.9999437 0.9999437 0.9934707
0.0624569 0.0624569 0.9354466
0.0675125 0.0624569 0.9354466
0.0937372 0.0624569 0.9354466
0.2297741 0.0624569 0.9354466
0.9354466 0.0624569 0.9354466
0.9915469 0.4834235 0.5812684
0.9984653 0.8462171 0.8518675
0.9997074 0.9668873 0.9671221
0.9999437 0.9934695 0.9934784
0.0624569 0.0675125 0.9354466
0.0619473 0.0619473 0.9348949
0.0883235 0.0619473 0.9348949
0.2251463 0.0619473 0.9348949
0.9348949 0.0619473 0.9348949
0.9915376 0.4831666 0.580601
0.998465 0.8461929 0.8518127
0.9997074 0.9668862 0.9671197
0.9999437 0.9934694 0.9934783
0.0624569 0.0937372 0.9354466
0.0619473 0.0883235 0.9348949
0.0694453 0.0694453 0.9329391
0.209003 0.0694453 0.9329391
0.9329391 0.0694453 0.9329391
0.9915054 0.4833013 0.5783109
0.998464 0.8461687 0.8516256
0.9997074 0.9668847 0.9671112
0.9999437 0.9934694 0.993478
0.0624569 0.2297741 0.9354466
0.0619473 0.2251463 0.9348949
0.0694453 0.209003 0.9329391
0.2059983 0.2059983 0.9325696
0.9325696 0.2059983 0.9325696
0.9914995 0.498157 0.577891
0.9984638 0.8470154 0.8515915
0.9997074 0.9669198 0.9671097
0.9999437 0.9934707 0.9934779
0.0624569 0.9354466 0.9354466
0.0619473 0.9348949 0.9348949
0.0694453 0.9329391 0.9329391
0.2059983 0.9325696 0.9325696
0.9325696 0.9325696 0.9325696
0.9914995 0.577891 0.577891
0.9984638 0.8515915 0.8515915
0.9997074 0.9671097 0.9671097
0.9999437 0.9934779 0.9934779
0.4834235 0.9915469 0.5812684
0.4831666 0.9915376 0.580601
0.4833013 0.9915054 0.5783109
0.498157 0.9914995 0.577891
0.577891 0.9914995 0.577891
0.9914995 0.9914995 0.577891
0.9984638 0.875329 0.8515915
0.9997074 0.9680946 0.9671097
0.9999437 0.9935154 0.9934779
0.8462171 0.9984653 0.8518675
0.8461929 0.998465 0.8518127
0.8461687 0.998464 0.8516256
0.8470154 0.9984638 0.8515915
0.8515915 0.9984638 0.8515915
0.875329 0.9984638 0.8515915
0.9984638 0.9984638 0.8515915
0.9997074 0.9732039 0.9671097
0.9999437 0.9937096 0.9934779
0.9668873 0.9997074 0.9671221
0.9668862 0.9997074 0.9671197
0.9668847 0.9997074 0.9671112
0.9669198 0.9997074 0.9671097
0.9671097 0.9997074 0.9671097
0.9680946 0.9997074 0.9671097
0.9732039 0.9997074 0.9671097
0.9997074 0.9997074 0.9671097
0.9999437 0.9947172 0.9934779
0.9934695 0.9999437 0.9934784
0.9934694 0.9999437 0.9934783
0.9934694 0.9999437 0.993478
0.9934707 0.9999437 0.9934779
0.9934779 0.9999437 0.9934779
0.9935154 0.9999437 0.9934779
0.9937096 0.9999437 0.9934779
0.9947172 0.9999437 0.9934779
0.9999437 0.9999437 0.9934779
0.4834235 0.4834235 0.9915469
0.4839901 0.4834235 0.9915469
0.4869294 0.4834235 0.9915469
0.5021764 0.4834235 0.9915469
0.5812684 0.4834235 0.9915469
0.9915469 0.4834235 0.9915469
0.9984653 0.8462171 0.8755606
0.9997074 0.9668873 0.9681067
0.9999437 0.9934695 0.9935159
0.4834235 0.4839901 0.9915469
0.4831666 0.4831666 0.9915376
0.4861106 0.4831666 0.9915376
0.5013822 0.4831666 0.9915376
0.580601 0.4831666 0.9915376
0.9915376 0.4831666 0.9915376
0.998465 0.8461929 0.8755147
0.9997074 0.9668862 0.9681043
0.9999437 0.9934694 0.9935158
0.4834235 0.4869294 0.9915469
0.4831666 0.4861106 0.9915376
0.4833013 0.4833013 0.9915054
0.4986567 0.4833013 0.9915054
0.5783109 0.4833013 0.9915054
0.9915054 0.4833013 0.9915054
0.998464 0.8461687 0.8753576
0.9997074 0.9668847 0.9680961
0.9999437 0.9934694 0.9935154
0.4834235 0.5021764 0.9915469
0.4831666 0.5013822 0.9915376
0.4833013 0.4986567 0.9915054
0.498157 0.498157 0.9914995
0.577891 0.498157 0.9914995
0.9914995 0.498157 0.9914995
0.9984638 0.8470154 0.875329
0.9997074 0.9669198 0.9680946
0.9999437 0.9934707 0.9935154
0.4834235 0.5812684 0.9915469
0.4831666 0.580601 0.9915376
0.4833013 0.5783109 0.9915054
0.498157 0.577891 0.9914995
0.577891 0.577891 0.9914995
0.9914995 0.577891 0.9914995
0.9984638 0.8515915 0.875329
0.9997074 0.9671097 0.9680946
0.9999437 0.9934779 0.9935154
0.4834235 0.9915469 0.9915469
0.4831666 0.9915376 0.9915376
0.4833013 0.9915054 0.9915054
0.498157 0.9914995 0.9914995
0.577891 0.9914995 0.9914995
0.9914995 0.9914995 0.9914995
0.9984638 0.875329 0.875329
0.9997074 0.9680946 0.9680946
0.9999437 0.9935154 0.9935154
0.8462171 0.9984653 0.8755606
0.8461929 0.998465 0.8755147
0.8461687 0.998464 0.8753576
0.8470154 0.9984638 0.875329
0.8515915 0.9984638 0.875329
0.875329 0.9984638 0.875329
0.9984638 0.9984638 0.875329
0.9997074 0.9732039 0.9680946
0.9999437 0.9937096 0.9935154
0.9668873 0.9997074 0.9681067
0.9668862 0.9997074 0.9681043
0.9668847 0.9997074 0.9680961
0.9669198 0.9997074 0.9680946
0.9671097 0.9997074 0.9680946
0.9680946 0.9997074 0.9680946
0.9732039 0.9997074 0.9680946
0.9997074 0.9997074 0.9680946
0.9999437 0.9947172 0.9935154
0.9934695 0.9999437 0.9935159
0.9934694 0.9999437 0.9935158
0.9934694 0.9999437 0.9935154
0.9934707 0.9999437 0.9935154
0.9934779 0.9999437 0.9935154
0.9935154 0.9999437 0.9935154
0.9937096 0.9999437 0.9935154
0.9947172 0.9999437 0.9935154
0.9999437 0.9999437 0.9935154
0.8462171 0.8462171 0.9984653
0.8462498 0.8462171 0.9984653
0.8464195 0.8462171 0.9984653
0.8473 0.8462171 0.9984653
0.8518675 0.8462171 0.9984653
0.8755606 0.8462171 0.9984653
0.9984653 0.8462171 0.9984653
0.9997074 0.9668873 0.973214
0.9999437 0.9934695 0.9937101
0.8462171 0.8462498 0.9984653
0.8461929 0.8461929 0.998465
0.8463627 0.8461929 0.998465
0.8472436 0.8461929 0.998465
0.8518127 0.8461929 0.998465
0.8755147 0.8461929 0.998465
0.998465 0.8461929 0.998465
0.9997074 0.9668862 0.973212
0.9999437 0.9934694 0.99371
0.8462171 0.8464195 0.9984653
0.8461929 0.8463627 0.998465
0.8461687 0.8461687 0.998464
0.8470507 0.8461687 0.998464
0.8516256 0.8461687 0.998464
0.8753576 0.8461687 0.998464
0.998464 0.8461687 0.998464
0.9997074 0.9668847 0.9732051
0.9999437 0.9934694 0.9937097
0.8462171 0.8473 0.9984653
0.8461929 0.8472436 0.998465
0.8461687 0.8470507 0.998464
0.8470154 0.8470154 0.9984638
0.8515915 0.8470154 0.9984638
0.875329 0.8470154 0.9984638
0.9984638 0.8470154 0.9984638
0.9997074 0.9669198 0.9732039
0.9999437 0.9934707 0.9937096
0.8462171 0.8518675 0.9984653
0.8461929 0.8518127 0.998465
0.8461687 0.8516256 0.998464
0.8470154 0.8515915 0.9984638
0.8515915 0.8515915 0.9984638
0.875329 0.8515915 0.9984638
0.9984638 0.8515915 0.9984638
0.9997074 0.9671097 0.9732039
0.9999437 0.9934779 0.9937096
0.8462171 0.8755606 0.9984653
0.8461929 0.8755147 0.998465
0.8461687 0.8753576 0.998464
0.8470154 0.875329 0.9984638
0.8515915 0.875329 0.9984638
0.875329 0.875329 0.9984638
0.9984638 0.875329 0.9984638
0.9997074 0.9680946 0.9732039
0.9999437 0.9935154 0.9937096
0.8462171 0.9984653 0.9984653
0.8461929 0.998465 0.998465
0.8461687 0.998464 0.998464
0.8470154 0.9984638 0.9984638
0.8515915 0.9984638 0.9984638
0.875329 0.9984638 0.9984638
0.9984638 0.9984638 0.9984638
0.9997074 0.9732039 0.9732039
0.9999437 0.9937096 0.9937096
0.9668873 0.9997074 0.973214
0.9668862 0.9997074 0.973212
0.9668847 0.9997074 0.9732051
0.9669198 0.9997074 0.9732039
0.9671097 0.9997074 0.9732039
0.9680946 0.9997074 0.9732039
0.9732039 0.9997074 0.9732039
0.9997074 0.9997074 0.9732039
0.9999437 0.9947172 0.9937096
0.9934695 0.9999437 0.9937101
0.9934694 0.9999437 0.99371
0.9934694 0.9999437 0.9937097
0.9934707 0.9999437 0.9937096
0.9934779 0.9999437 0.9937096
0.9935154 0.9999437 0.9937096
0.9937096 0.9999437 0.9937096
0.9947172 0.9999437 0.9937096
0.9999437 0.9999437 0.9937096
0.9668873 0.9668873 0.9997074
0.9668887 0.9668873 0.9997074
0.9668957 0.9668873 0.9997074
0.9669323 0.9668873 0.9997074
0.9671221 0.9668873 0.9997074
0.9681067 0.9668873 0.9997074
0.973214 0.9668873 0.9997074
0.9997074 0.9668873 0.9997074
0.9999437 0.9934695 0.9947176
0.9668873 0.9668887 0.9997074
0.9668862 0.9668862 0.9997074
0.9668932 0.9668862 0.9997074
0.9669298 0.9668862 0.9997074
0.9671197 0.9668862 0.9997074
0.9681043 0.9668862 0.9997074
0.973212 0.9668862 0.9997074
0.9997074 0.9668862 0.9997074
0.9999437 0.9934694 0.9947175
0.9668873 0.9668957 0.9997074
0.9668862 0.9668932 0.9997074
0.9668847 0.9668847 0.9997074
0.9669214 0.9668847 0.9997074
0.9671112 0.9668847 0.9997074
0.9680961 0.9668847 0.9997074
0.9732051 0.9668847 0.9997074
0.9997074 0.9668847 0.9997074
0.9999437 0.9934694 0.9947172
0.9668873 0.9669323 0.9997074
0.9668862 0.9669298 0.9997074
0.9668847 0.9669214 0.9997074
0.9669198 0.9669198 0.9997074
0.9671097 0.9669198 0.9997074
0.9680946 0.9669198 0.9997074
0.9732039 0.9669198 0.9997074
0.9997074 0.9669198 0.9997074
0.9999437 0.9934707 0.9947172
0.9668873 0.9671221 0.9997074
0.9668862 0.9671197 0.9997074
0.9668847 0.9671112 0.9997074
0.9669198 0.9671097 0.9997074
0.9671097 0.9671097 0.9997074
0.9680946 0.9671097 0.9997074
0.9732039 0.9671097 0.9997074
0.9997074 0.9671097 0.9997074
0.9999437 0.9934779 0.9947172
0.9668873 0.9681067 0.9997074
0.9668862 0.9681043 0.9997074
0.9668847 0.9680961 0.9997074
0.9669198 0.9680946 0.9997074
0.9671097 0.9680946 0.9997074
0.9680946 0.9680946 0.9997074
0.9732039 0.9680946 0.9997074
0.9997074 0.9680946 0.9997074
0.9999437 0.9935154 0.9947172
0.9668873 0.973214 0.9997074
0.9668862 0.973212 0.9997074
0.9668847 0.9732051 0.9997074
0.9669198 0.9732039 0.9997074
0.9671097 0.9732039 0.9997074
0.9680946 0.9732039 0.9997074
0.9732039 0.9732039 0.9997074
0.9997074 0.9732039 0.9997074
0.9999437 0.9937096 0.9947172
0.9668873 0.9997074 0.9997074
0.9668862 0.9997074 0.9997074
0.9668847 0.9997074 0.9997074
0.9669198 0.9997074 0.9997074
0.9671097 0.9997074 0.9997074
0.9680946 0.9997074 0.9997074
0.9732039 0.9997074 0.9997074
0.9997074 0.9997074 0.9997074
0.9999437 0.9947172 0.9947172
0.9934695 0.9999437 0.9947176
0.9934694 0.9999437 0.9947175
0.9934694 0.9999437 0.9947172
0.9934707 0.9999437 0.9947172
0.9934779 0.9999437 0.9947172
0.9935154 0.9999437 0.9947172
0.9937096 0.9999437 0.9947172
0.9947172 0.9999437 0.9947172
0.9999437 0.9999437 0.9947172
0.9934695 0.9934695 0.9999437
0.9934695 0.9934695 0.9999437
0.9934698 0.9934695 0.9999437
0.9934712 0.9934695 0.9999437
0.9934784 0.9934695 0.9999437
0.9935159 0.9934695 0.9999437
0.9937101 0.9934695 0.9999437
0.9947176 0.9934695 0.9999437
0.9999437 0.9934695 0.9999437
0.9934695 0.9934695 0.9999437
0.9934694 0.9934694 0.9999437
0.9934697 0.9934694 0.9999437
0.9934711 0.9934694 0.9999437
0.9934783 0.9934694 0.9999437
0.9935158 0.9934694 0.9999437
0.99371 0.9934694 0.9999437
0.9947175 0.9934694 0.9999437
0.9999437 0.9934694 0.9999437
0.9934695 0.9934698 0.9999437
0.9934694 0.9934697 0.9999437
0.9934694 0.9934694 0.9999437
0.9934708 0.9934694 0.9999437
0.993478 0.9934694 0.9999437
0.9935154 0.9934694 0.9999437
0.9937097 0.9934694 0.9999437
0.9947172 0.9934694 0.9999437
0.9999437 0.9934694 0.9999437
0.9934695 0.9934712 0.9999437
0.9934694 0.9934711 0.9999437
0.9934694 0.9934708 0.9999437
0.9934707 0.9934707 0.9999437
0.9934779 0.9934707 0.9999437
0.9935154 0.9934707 0.9999437
0.9937096 0.9934707 0.9999437
0.9947172 0.9934707 0.9999437
0.9999437 0.9934707 0.9999437
0.9934695 0.9934784 0.9999437
0.9934694 0.9934783 0.9999437
0.9934694 0.993478 0.9999437
0.9934707 0.9934779 0.9999437
0.9934779 0.9934779 0.9999437
0.9935154 0.9934779 0.9999437
0.9937096 0.9934779 0.9999437
0.9947172 0.9934779 0.9999437
0.9999437 0.9934779 0.9999437
0.9934695 0.9935159 0.9999437
0.9934694 0.9935158 0.9999437
0.9934694 0.9935154 0.9999437
0.9934707 0.9935154 0.9999437
0.9934779 0.9935154 0.9999437
0.9935154 0.9935154 0.9999437
0.9937096 0.9935154 0.9999437
0.9947172 0.9935154 0.9999437
0.9999437 0.9935154 0.9999437
0.9934695 0.9937101 0.9999437
0.9934694 0.99371 0.9999437
0.9934694 0.9937097 0.9999437
0.9934707 0.9937096 0.9999437
0.9934779 0.9937096 0.9999437
0.9935154 0.9937096 0.9999437
0.9937096 0.9937096 0.9999437
0.9947172 0.9937096 0.9999437
0.9999437 0.9937096 0.9999437
0.9934695 0.9947176 0.9999437
0.9934694 0.9947175 0.9999437
0.9934694 0.9947172 0.9999437
0.9934707 0.9947172 0.9999437
0.9934779 0.9947172 0.9999437
0.9935154 0.9947172 0.9999437
0.9937096 0.9947172 0.9999437
0.9947172 0.9947172 0.9999437
0.9999437 0.9947172 0.9999437
0.9934695 0.9999437 0.9999437
0.9934694 0.9999437 0.9999437
0.9934694 0.9999437 0.9999437
0.9934707 0.9999437 0.9999437
0.9934779 0.9999437 0.9999437
0.9935154 0.9999437 0.9999437
0.9937096 0.9999437 0.9999437
0.9947172 0.9999437 0.9999437
0.9999437 0.9999437 0.9999437
